svgs/thin/fence.svg

<svg xmlns="http://www.w3.org/2000/svg" viewBox="0 0 512 512"><!--! Font Awesome Pro 6.1.1 by @fontawesome - https://fontawesome.com License - https://fontawesome.com/license (Commercial License) Copyright 2022 Fonticons, Inc. --><path d="M72 32C74.52 32 76.89 33.19 78.4 35.2L123.2 94.93C126.3 99.09 128 104.1 128 109.3V160H200V109.3C200 104.1 201.7 99.09 204.8 94.93L249.6 35.2C251.1 33.19 253.5 32 256 32C258.5 32 260.9 33.19 262.4 35.2L307.2 94.93C310.3 99.09 312 104.1 312 109.3V160H384V109.3C384 104.1 385.7 99.09 388.8 94.93L433.6 35.2C435.1 33.19 437.5 32 440 32C442.5 32 444.9 33.19 446.4 35.2L491.2 94.93C494.3 99.09 496 104.1 496 109.3V456C496 469.3 485.3 480 472 480H408C394.7 480 384 469.3 384 456V368H312V456C312 469.3 301.3 480 288 480H224C210.7 480 200 469.3 200 456V368H128V456C128 469.3 117.3 480 104 480H40C26.75 480 16 469.3 16 456V109.3C16 104.1 17.68 99.09 20.8 94.93L65.6 35.2C67.11 33.19 69.48 32 72 32V32zM312 352H384V176H312V352zM128 176V352H200V176H128zM72 53.33L33.6 104.5C32.56 105.9 32 107.6 32 109.3V456C32 460.4 35.58 464 40 464H104C108.4 464 112 460.4 112 456V109.3C112 107.6 111.4 105.9 110.4 104.5L72 53.33zM440 53.33L401.6 104.5C400.6 105.9 400 107.6 400 109.3V456C400 460.4 403.6 464 408 464H472C476.4 464 480 460.4 480 456V109.3C480 107.6 479.4 105.9 478.4 104.5L440 53.33zM216 109.3V456C216 460.4 219.6 464 224 464H288C292.4 464 296 460.4 296 456V109.3C296 107.6 295.4 105.9 294.4 104.5L256 53.33L217.6 104.5C216.6 105.9 216 107.6 216 109.3z"/></svg>

<svg xmlns="http://www.w3.org/2000/svg" viewBox="0 0 512 512"><!--! Font Awesome Pro 6.5.1 by @fontawesome - https://fontawesome.com License - https://fontawesome.com/license (Commercial License) Copyright 2023 Fonticons, Inc. --><path d="M72 32c2.5 0 4.9 1.2 6.4 3.2l44.8 59.7c3.1 4.2 4.8 9.2 4.8 14.4V160h72V109.3c0-5.2 1.7-10.2 4.8-14.4l44.8-59.7c1.5-2 3.9-3.2 6.4-3.2s4.9 1.2 6.4 3.2l44.8 59.7c3.1 4.2 4.8 9.2 4.8 14.4V160h72V109.3c0-5.2 1.7-10.2 4.8-14.4l44.8-59.7c1.5-2 3.9-3.2 6.4-3.2s4.9 1.2 6.4 3.2l44.8 59.7c3.1 4.2 4.8 9.2 4.8 14.4V456c0 13.3-10.7 24-24 24H408c-13.3 0-24-10.7-24-24V368H312v88c0 13.3-10.7 24-24 24H224c-13.3 0-24-10.7-24-24V368H128v88c0 13.3-10.7 24-24 24H40c-13.3 0-24-10.7-24-24V109.3c0-5.2 1.7-10.2 4.8-14.4L65.6 35.2c1.5-2 3.9-3.2 6.4-3.2zM312 352h72V176H312V352zM200 176H128V352h72V176zM72 53.3L33.6 104.5c-1 1.4-1.6 3.1-1.6 4.8V456c0 4.4 3.6 8 8 8h64c4.4 0 8-3.6 8-8V109.3c0-1.7-.6-3.4-1.6-4.8L72 53.3zm368 0l-38.4 51.2c-1 1.4-1.6 3.1-1.6 4.8V456c0 4.4 3.6 8 8 8h64c4.4 0 8-3.6 8-8V109.3c0-1.7-.6-3.4-1.6-4.8L440 53.3zM217.6 104.5c-1 1.4-1.6 3.1-1.6 4.8V456c0 4.4 3.6 8 8 8h64c4.4 0 8-3.6 8-8V109.3c0-1.7-.6-3.4-1.6-4.8L256 53.3l-38.4 51.2z"/></svg>
